icons/codescan-16.svg

<svg xmlns="http://www.w3.org/2000/svg" width="16" height="16" viewBox="0 0 16 16">
  <defs/>
  <path d="M8.47,4.97 A0.75 0.75 0 0 0 8.47,6.03 L9.94,7.5 L8.47,8.97 A0.75 0.75 0 1 0 9.53,10.03 L11.53,8.03 A0.75 0.75 0 0 0 11.53,6.97 L9.53,4.97 A0.75 0.75 0 0 0 8.47,4.97 Z M6.53,6.03 A0.75 0.75 0 0 0 5.47,4.97 L3.47,6.97 A0.75 0.75 0 0 0 3.47,8.03 L5.47,10.03 A0.75 0.75 0 1 0 6.53,8.97 L5.06,7.5 L6.53,6.03 Z"/>
  <path d="M12.246,13.307 C9.152,15.836 4.618,15.495 1.937,12.532 C-0.744,9.568 -0.63,5.023 2.196,2.197 C5.022,-0.629 9.567,-0.743 12.531,1.938 C15.494,4.619 15.835,9.153 13.306,12.247 L15.78,14.72 C15.981,14.907 16.063,15.189 15.995,15.454 C15.928,15.72 15.72,15.928 15.454,15.995 C15.189,16.063 14.907,15.981 14.72,15.78 Z M1.5,7.5 C1.5,9.889 2.917,12.051 5.108,13.004 C7.3,13.956 9.847,13.517 11.594,11.887 C11.662,11.764 11.763,11.662 11.886,11.594 C13.722,9.628 14.024,6.68 12.626,4.381 C11.228,2.083 8.471,0.996 5.881,1.722 C3.29,2.448 1.5,4.81 1.5,7.5 Z"/>
</svg>

<svg xmlns="http://www.w3.org/2000/svg" width="16" height="16" viewBox="0 0 16 16"><path d="M8.47 4.97a.75.75 0 000 1.06L9.94 7.5 8.47 8.97a.75.75 0 101.06 1.06l2-2a.75.75 0 000-1.06l-2-2a.75.75 0 00-1.06 0zM6.53 6.03a.75.75 0 00-1.06-1.06l-2 2a.75.75 0 000 1.06l2 2a.75.75 0 101.06-1.06L5.06 7.5l1.47-1.47z"/><path fill-rule="evenodd" d="M12.246 13.307a7.5 7.5 0 111.06-1.06l2.474 2.473a.75.75 0 11-1.06 1.06l-2.474-2.473zM1.5 7.5a6 6 0 1110.386 4.094.75.75 0 00-.292.293A6 6 0 011.5 7.5z"/></svg>
